Delta/apps/scalable/code.svg

<?xml version="1.0" encoding="UTF-8" standalone="no"?>
<svg
   xmlns:dc="http://purl.org/dc/elements/1.1/"
   xmlns:cc="http://creativecommons.org/ns#"
   xmlns:rdf="http://www.w3.org/1999/02/22-rdf-syntax-ns#"
   xmlns:svg="http://www.w3.org/2000/svg"
   xmlns="http://www.w3.org/2000/svg"
   xmlns:sodipodi="http://sodipodi.sourceforge.net/DTD/sodipodi-0.dtd"
   xmlns:inkscape="http://www.inkscape.org/namespaces/inkscape"
   width="192"
   height="192"
   version="1.1"
   viewBox="0 0 192 192"
   id="svg14"
   sodipodi:docname="code.svg"
   inkscape:version="0.92.5 (2060ec1f9f, 2020-04-08)">
  <metadata
     id="metadata20">
    <rdf:RDF>
      <cc:Work
         rdf:about="">
        <dc:format>image/svg+xml</dc:format>
        <dc:type
           rdf:resource="http://purl.org/dc/dcmitype/StillImage" />
        <dc:title></dc:title>
      </cc:Work>
    </rdf:RDF>
  </metadata>
  <defs
     id="defs18" />
  <sodipodi:namedview
     pagecolor="#ffffff"
     bordercolor="#666666"
     borderopacity="1"
     objecttolerance="10"
     gridtolerance="10"
     guidetolerance="10"
     inkscape:pageopacity="0"
     inkscape:pageshadow="2"
     inkscape:window-width="1280"
     inkscape:window-height="745"
     id="namedview16"
     showgrid="true"
     inkscape:zoom="2.3828026"
     inkscape:cx="149.32842"
     inkscape:cy="99.580083"
     inkscape:window-x="-12"
     inkscape:window-y="-2"
     inkscape:window-maximized="1"
     inkscape:current-layer="svg14"
     inkscape:document-rotation="0">
    <inkscape:grid
       type="xygrid"
       id="grid829" />
  </sodipodi:namedview>
  <path
     inkscape:connector-curvature="0"
     style="opacity:1;vector-effect:none;fill:#54688C;fill-opacity:1;fill-rule:nonzero;stroke-width:0.90801769;paint-order:stroke fill markers"
     d="m 132.74123,13.871658 c -2.59809,0.04282 -5.14749,1.073986 -7.06906,2.995394 L 14.885143,117.87869 c -2.979894,2.71715 -2.976748,7.40856 0.0071,10.12121 l 9.050028,8.22714 c 2.439463,2.21798 6.113183,2.38053 8.73967,0.38839 L 166.09491,35.405155 C 170.57065,32.00972 177,35.201525 177,40.819566 v -0.393711 c 0,-3.943547 -2.26031,-7.537916 -5.81344,-9.248657 L 137.34515,14.882537 c -1.46883,-0.707279 -3.04506,-1.036566 -4.60392,-1.010879 z"
     id="rect918" />
  <path
     inkscape:connector-curvature="0"
     style="opacity:1;vector-effect:none;fill:#728DBE;fill-opacity:1;fill-rule:nonzero;stroke-width:0.90801769;paint-order:stroke fill markers"
     d="m 28.824634,53.136329 c -1.747223,-0.07066 -3.510171,0.527809 -4.882369,1.775245 l -9.050028,8.227137 c -2.98386,2.712588 -2.986988,7.40248 -0.0071,10.119431 L 125.67217,174.27156 c 3.0745,3.07386 7.75608,3.86838 11.67298,1.98274 l 33.84141,-16.29467 C 174.7397,158.24851 177,154.65421 177,150.71098 v -0.39371 c 0,5.61842 -6.42933,8.8115 -10.90509,5.41619 L 32.681936,54.523183 c -1.149089,-0.87176 -2.498351,-1.331893 -3.857302,-1.386854 z"
     id="rect921" />
  <path
     inkscape:connector-curvature="0"
     style="opacity:1;vector-effect:none;fill:#9ABEFF;fill-opacity:1;fill-rule:nonzero;stroke-width:0.90801769;paint-order:stroke fill markers"
     d="m 132.743,13.869885 c -2.5984,0.04357 -5.14926,1.075581 -7.07083,2.997167 3.78796,-3.788208 10.26663,-1.106303 10.26663,4.251013 V 170.01878 c 0,5.35729 -6.47867,8.04074 -10.26663,4.25278 3.0745,3.07451 7.75656,3.87065 11.67477,1.98629 l 33.83607,-16.27161 C 174.73871,158.2764 177,154.67919 177,150.73405 V 40.402799 c 0,-3.94528 -2.26129,-7.540587 -5.81699,-9.25043 L 137.34694,14.880764 c -1.46933,-0.706655 -3.0449,-1.037023 -4.60394,-1.010879 z"
     id="rect915" />
</svg>

<svg width="192" height="192" version="1.1" viewBox="0 0 192 192" xmlns="http://www.w3.org/2000/svg">
 <path d="m132.74 13.872c-2.5981 0.04282-5.1475 1.074-7.0691 2.9954l-110.79 101.01c-2.9799 2.7172-2.9767 7.4086 0.0071 10.121l9.05 8.2271c2.4395 2.218 6.1132 2.3805 8.7397 0.38839l133.41-101.21c4.4757-3.3954 10.905-0.20363 10.905 5.4144v-0.39371c0-3.9435-2.2603-7.5379-5.8134-9.2487l-33.841-16.295c-1.4688-0.70728-3.0451-1.0366-4.6039-1.0109z" style="fill:#54688C;paint-order:stroke fill markers;stroke-width:.90802"/>
 <path d="m28.825 53.136c-1.7472-0.07066-3.5102 0.52781-4.8824 1.7752l-9.05 8.2271c-2.9839 2.7126-2.987 7.4025-0.0071 10.119l110.79 101.01c3.0745 3.0739 7.7561 3.8684 11.673 1.9827l33.841-16.295c3.5531-1.7111 5.8134-5.3054 5.8134-9.2486v-0.39371c0 5.6184-6.4293 8.8115-10.905 5.4162l-133.41-101.21c-1.1491-0.87176-2.4984-1.3319-3.8573-1.3869z" style="fill:#728DBE;paint-order:stroke fill markers;stroke-width:.90802"/>
 <path d="m132.74 13.87c-2.5984 0.04357-5.1493 1.0756-7.0708 2.9972 3.788-3.7882 10.267-1.1063 10.267 4.251v148.9c0 5.3573-6.4787 8.0407-10.267 4.2528 3.0745 3.0745 7.7566 3.8706 11.675 1.9863l33.836-16.272c3.5557-1.7098 5.817-5.307 5.817-9.2522v-110.33c0-3.9453-2.2613-7.5406-5.817-9.2504l-33.836-16.272c-1.4693-0.70666-3.0449-1.037-4.6039-1.0109z" style="fill:#9ABEFF;paint-order:stroke fill markers;stroke-width:.90802"/>
</svg>
